X: 368
T: Back Up and Push
C:Jim's mashup
B: jims roots
M:4/4
L:1/8
Q: 1/4=100
K:C
V:1 
"(C)"z2[e2g] [eg][dg] [c2e] |: "F"[d2f][F2A] [FA][FA][FA][FA] | [F2A] [eg][eg] [eg][dg] [c2e]  | "C"[ce]A [c2G] [cG][cG][cG][cG] | [c2G] G2A2_B2 |
"G"[G2=B][B2g] [Bg][Bg][Bg][Bg] | [B2g] [Bg]g aged | "C"[c2e] [ce][ce] [ce][ce][ce][ce] |[1 [c2e][e2g] [eg][dg] [c2e] :| [2 [C2E2c2]C2 D2E2 ||
"G"B/B/g/B/ B/a/B/B/ g/B/B/a/ B/B/g/B/ |[1 "C"c/c/g/c/ c/a/c/c/ b/c/c/a/ c/c/g/c/ :|[2 "C"[E2c] c2d2e2 ||
"F"[A3f]g fdc2  | [A4F][f4A] | "C"[c3e]f edc2 | [G4c][c3e]e | "G"e2d2B2G2 | e2d2B2G2 | "C"[E8c] | z2[e2g] [eg][dg][ce] |]
V:P:B Part  (shuffle)
"F"F/F/c/F/ F/d/F/F/ c/F/F/d/ F/F/c/F/ | "C"E/E/c/E/ E/d/E/E/ c/E/E/d/ E/E/c/E/ |
V:P:Alternate A
"F"[A3f]g fdc2 | [A4F][f4A] | "C"[c3e]f edc2 | [G4c][c3e]e | "G"e2d2B2G2 | F2G2B2d2 | "C"[E4c] [E4B] | "C7"[E2_B]c2d2e2 |
% abcbook-tune_id 6298c245dbd4d3fa5897d16a


% abcbook-boost 0
% abcbook-tablature 
% abcbook-transpose 
% abcbook-lastupdated 1654178373225
% abcbook-soundfonts 
% abcbook-repeats 1


